avogadro/qtplugins/templatetool/centers/5-tbp.svg

<svg xmlns="http://www.w3.org/2000/svg" xmlns:xlink="http://www.w3.org/1999/xlink" width="34" height="33" viewBox="0 0 34 33" style="background-color:#ffffff00" version="1.1"><path fill="#000" stroke="none" d="M 4174.3,2823.98 L 4180.31,2830 L 4174.3,2836.02 L 3892.34,2836.02 L 3892.34,2823.98 L 4174.3,2823.98 Z" transform="matrix(0.05 0 0 0.05 -192 -125)"/><path fill="#000" stroke="none" d="M 4444.59,2948.01 L 4414.58,2999.96 L 4186.33,2841.48 L 4180.31,2830 L 4186.33,2826.21 L 4444.59,2948.01 Z" transform="matrix(0.05 0 0 0.05 -192 -125)"/><path fill="#000" stroke="none" d="M 4450.98,2726.18 L 4466.55,2784.13 L 4454.62,2786.08 L 4439.67,2730.47 L 4450.98,2726.18 Z" transform="matrix(0.05 0 0 0.05 -192 -125)"/><path fill="#000" stroke="none" d="M 4397.83,2746.36 L 4410.45,2793.31 L 4398.52,2795.26 L 4386.53,2750.65 L 4397.83,2746.36 Z" transform="matrix(0.05 0 0 0.05 -192 -125)"/><path fill="#000" stroke="none" d="M 4344.69,2766.54 L 4354.35,2802.49 L 4342.42,2804.45 L 4333.38,2770.84 L 4344.69,2766.54 Z" transform="matrix(0.05 0 0 0.05 -192 -125)"/><path fill="#000" stroke="none" d="M 4291.54,2786.72 L 4298.25,2811.68 L 4286.32,2813.63 L 4280.24,2791.02 L 4291.54,2786.72 Z" transform="matrix(0.05 0 0 0.05 -192 -125)"/><path fill="#000" stroke="none" d="M 4238.4,2806.9 L 4242.15,2820.86 L 4230.22,2822.82 L 4227.09,2811.2 L 4238.4,2806.9 Z" transform="matrix(0.05 0 0 0.05 -192 -125)"/><path fill="#000" stroke="none" d="M 4174.3,2542.03 L 4186.33,2542.03 L 4186.33,2826.21 L 4180.31,2830 L 4174.3,2823.98 L 4174.3,2542.03 Z" transform="matrix(0.05 0 0 0.05 -192 -125)"/><path fill="#000" stroke="none" d="M 4186.33,3117.97 L 4174.3,3117.97 L 4174.3,2836.02 L 4180.31,2830 L 4186.33,2841.48 L 4186.33,3117.97 Z" transform="matrix(0.05 0 0 0.05 -192 -125)"/><path fill="#108080" stroke="none" d="M 4050.73,2830 A 129.586,129.586 0 1 0 4309.9,2830A 129.586,129.586 0 1 0 4050.73,2830Z" transform="matrix(0.05 0 0 0.05 -192 -125)"/><path fill="#1e8787" stroke="none" d="M 4052.23,2827.98 A 126.059,126.059 0 1 0 4304.35,2827.98A 126.059,126.059 0 1 0 4052.23,2827.98Z" transform="matrix(0.05 0 0 0.05 -192 -125)"/><path fill="#2c8f8f" stroke="none" d="M 4053.73,2825.95 A 122.531,122.531 0 1 0 4298.79,2825.95A 122.531,122.531 0 1 0 4053.73,2825.95Z" transform="matrix(0.05 0 0 0.05 -192 -125)"/><path fill="#3a9696" stroke="none" d="M 4055.23,2823.93 A 119.004,119.004 0 1 0 4293.24,2823.93A 119.004,119.004 0 1 0 4055.23,2823.93Z" transform="matrix(0.05 0 0 0.05 -192 -125)"/><path fill="#489d9d" stroke="none" d="M 4056.74,2821.9 A 115.477,115.477 0 1 0 4287.69,2821.9A 115.477,115.477 0 1 0 4056.74,2821.9Z" transform="matrix(0.05 0 0 0.05 -192 -125)"/><path fill="#54a4a4" stroke="none" d="M 4058.24,2819.88 A 111.949,111.949 0 1 0 4282.14,2819.88A 111.949,111.949 0 1 0 4058.24,2819.88Z" transform="matrix(0.05 0 0 0.05 -192 -125)"/><path fill="#61abab" stroke="none" d="M 4059.74,2817.85 A 108.422,108.422 0 1 0 4276.58,2817.85A 108.422,108.422 0 1 0 4059.74,2817.85Z" transform="matrix(0.05 0 0 0.05 -192 -125)"/><path fill="#6db1b1" stroke="none" d="M 4061.24,2815.83 A 104.895,104.895 0 1 0 4271.03,2815.83A 104.895,104.895 0 1 0 4061.24,2815.83Z" transform="matrix(0.05 0 0 0.05 -192 -125)"/><path fill="#78b7b7" stroke="none" d="M 4062.75,2813.8 A 101.367,101.367 0 1 0 4265.48,2813.8A 101.367,101.367 0 1 0 4062.75,2813.8Z" transform="matrix(0.05 0 0 0.05 -192 -125)"/><path fill="#83bdbd" stroke="none" d="M 4064.25,2811.78 A 97.8398,97.8398 0 1 0 4259.93,2811.78A 97.8398,97.8398 0 1 0 4064.25,2811.78Z" transform="matrix(0.05 0 0 0.05 -192 -125)"/><path fill="#8ec2c2" stroke="none" d="M 4065.75,2809.75 A 94.3125,94.3125 0 1 0 4254.38,2809.75A 94.3125,94.3125 0 1 0 4065.75,2809.75Z" transform="matrix(0.05 0 0 0.05 -192 -125)"/><path fill="#98c8c8" stroke="none" d="M 4067.25,2807.73 A 90.7852,90.7852 0 1 0 4248.82,2807.73A 90.7852,90.7852 0 1 0 4067.25,2807.73Z" transform="matrix(0.05 0 0 0.05 -192 -125)"/><path fill="#a1cdcd" stroke="none" d="M 4068.76,2805.7 A 87.2578,87.2578 0 1 0 4243.27,2805.7A 87.2578,87.2578 0 1 0 4068.76,2805.7Z" transform="matrix(0.05 0 0 0.05 -192 -125)"/><path fill="#aad2d2" stroke="none" d="M 4070.26,2803.68 A 83.7305,83.7305 0 1 0 4237.72,2803.68A 83.7305,83.7305 0 1 0 4070.26,2803.68Z" transform="matrix(0.05 0 0 0.05 -192 -125)"/><path fill="#b3d6d6" stroke="none" d="M 4071.76,2801.65 A 80.2031,80.2031 0 1 0 4232.17,2801.65A 80.2031,80.2031 0 1 0 4071.76,2801.65Z" transform="matrix(0.05 0 0 0.05 -192 -125)"/><path fill="#bbdbdb" stroke="none" d="M 4073.26,2799.63 A 76.6758,76.6758 0 1 0 4226.62,2799.63A 76.6758,76.6758 0 1 0 4073.26,2799.63Z" transform="matrix(0.05 0 0 0.05 -192 -125)"/><path fill="#c3dfdf" stroke="none" d="M 4074.77,2797.6 A 73.1484,73.1484 0 1 0 4221.06,2797.6A 73.1484,73.1484 0 1 0 4074.77,2797.6Z" transform="matrix(0.05 0 0 0.05 -192 -125)"/><path fill="#cae3e3" stroke="none" d="M 4076.27,2795.58 A 69.6211,69.6211 0 1 0 4215.51,2795.58A 69.6211,69.6211 0 1 0 4076.27,2795.58Z" transform="matrix(0.05 0 0 0.05 -192 -125)"/><path fill="#d1e6e6" stroke="none" d="M 4077.77,2793.55 A 66.0938,66.0938 0 1 0 4209.96,2793.55A 66.0938,66.0938 0 1 0 4077.77,2793.55Z" transform="matrix(0.05 0 0 0.05 -192 -125)"/><path fill="#d7eaea" stroke="none" d="M 4079.27,2791.53 A 62.5664,62.5664 0 1 0 4204.41,2791.53A 62.5664,62.5664 0 1 0 4079.27,2791.53Z" transform="matrix(0.05 0 0 0.05 -192 -125)"/><path fill="#ddeded" stroke="none" d="M 4080.78,2789.5 A 59.0391,59.0391 0 1 0 4198.86,2789.5A 59.0391,59.0391 0 1 0 4080.78,2789.5Z" transform="matrix(0.05 0 0 0.05 -192 -125)"/><path fill="#e2efef" stroke="none" d="M 4082.28,2787.48 A 55.5117,55.5117 0 1 0 4193.3,2787.48A 55.5117,55.5117 0 1 0 4082.28,2787.48Z" transform="matrix(0.05 0 0 0.05 -192 -125)"/><path fill="#e7f2f2" stroke="none" d="M 4083.78,2785.45 A 51.9844,51.9844 0 1 0 4187.75,2785.45A 51.9844,51.9844 0 1 0 4083.78,2785.45Z" transform="matrix(0.05 0 0 0.05 -192 -125)"/><path fill="#ecf4f4" stroke="none" d="M 4085.28,2783.43 A 48.457,48.457 0 1 0 4182.2,2783.43A 48.457,48.457 0 1 0 4085.28,2783.43Z" transform="matrix(0.05 0 0 0.05 -192 -125)"/><path fill="#f0f7f7" stroke="none" d="M 4086.79,2781.41 A 44.9297,44.9297 0 1 0 4176.65,2781.41A 44.9297,44.9297 0 1 0 4086.79,2781.41Z" transform="matrix(0.05 0 0 0.05 -192 -125)"/><path fill="#f3f8f8" stroke="none" d="M 4088.29,2779.38 A 41.4023,41.4023 0 1 0 4171.09,2779.38A 41.4023,41.4023 0 1 0 4088.29,2779.38Z" transform="matrix(0.05 0 0 0.05 -192 -125)"/><path fill="#f6fafa" stroke="none" d="M 4089.79,2777.36 A 37.875,37.875 0 1 0 4165.54,2777.36A 37.875,37.875 0 1 0 4089.79,2777.36Z" transform="matrix(0.05 0 0 0.05 -192 -125)"/><path fill="#f9fbfb" stroke="none" d="M 4091.29,2775.33 A 34.3477,34.3477 0 1 0 4159.99,2775.33A 34.3477,34.3477 0 1 0 4091.29,2775.33Z" transform="matrix(0.05 0 0 0.05 -192 -125)"/><path fill="#fbfdfd" stroke="none" d="M 4092.8,2773.31 A 30.8203,30.8203 0 1 0 4154.44,2773.31A 30.8203,30.8203 0 1 0 4092.8,2773.31Z" transform="matrix(0.05 0 0 0.05 -192 -125)"/><path fill="#fcfdfd" stroke="none" d="M 4094.3,2771.28 A 27.293,27.293 0 1 0 4148.89,2771.28A 27.293,27.293 0 1 0 4094.3,2771.28Z" transform="matrix(0.05 0 0 0.05 -192 -125)"/><path fill="#fefefe" stroke="none" d="M 4095.8,2769.26 A 23.7656,23.7656 0 1 0 4143.33,2769.26A 23.7656,23.7656 0 1 0 4095.8,2769.26Z" transform="matrix(0.05 0 0 0.05 -192 -125)"/><path fill="#fefefe" stroke="none" d="M 4097.31,2767.23 A 20.2383,20.2383 0 1 0 4137.78,2767.23A 20.2383,20.2383 0 1 0 4097.31,2767.23Z" transform="matrix(0.05 0 0 0.05 -192 -125)"/><path fill="none" stroke="#108080" stroke-width="12" d="M 4050.73,2830 A 129.586,129.586 0 1 0 4309.9,2830A 129.586,129.586 0 1 0 4050.73,2830Z" transform="matrix(0.05 0 0 0.05 -192 -125)"/></svg>

<svg height="33" viewBox="0 0 34 33" width="34" xmlns="http://www.w3.org/2000/svg"><g transform="matrix(.05 0 0 .05 -192 -125)"><path d="m4174.3 2823.98 6.01 6.02-6.01 6.02h-281.96v-12.04z"/><path d="m4444.59 2948.01-30.01 51.95-228.25-158.48-6.02-11.48 6.02-3.79z"/><path d="m4450.98 2726.18 15.57 57.95-11.93 1.95-14.95-55.61z"/><path d="m4397.83 2746.36 12.62 46.95-11.93 1.95-11.99-44.61z"/><path d="m4344.69 2766.54 9.66 35.95-11.93 1.96-9.04-33.61z"/><path d="m4291.54 2786.72 6.71 24.96-11.93 1.95-6.08-22.61z"/><path d="m4238.4 2806.9 3.75 13.96-11.93 1.96-3.13-11.62z"/><path d="m4174.3 2542.03h12.03v284.18l-6.02 3.79-6.01-6.02z"/><path d="m4186.33 3117.97h-12.03v-281.95l6.01-6.02 6.02 11.48z"/><path d="m4050.73 2830a129.586 129.586 0 1 0 259.17 0 129.586 129.586 0 1 0 -259.17 0z" fill="#108080"/><path d="m4052.23 2827.98a126.059 126.059 0 1 0 252.12 0 126.059 126.059 0 1 0 -252.12 0z" fill="#1e8787"/><path d="m4053.73 2825.95a122.531 122.531 0 1 0 245.06 0 122.531 122.531 0 1 0 -245.06 0z" fill="#2c8f8f"/><path d="m4055.23 2823.93a119.004 119.004 0 1 0 238.01 0 119.004 119.004 0 1 0 -238.01 0z" fill="#3a9696"/><path d="m4056.74 2821.9a115.477 115.477 0 1 0 230.95 0 115.477 115.477 0 1 0 -230.95 0z" fill="#489d9d"/><path d="m4058.24 2819.88a111.949 111.949 0 1 0 223.9 0 111.949 111.949 0 1 0 -223.9 0z" fill="#54a4a4"/><path d="m4059.74 2817.85a108.422 108.422 0 1 0 216.84 0 108.422 108.422 0 1 0 -216.84 0z" fill="#61abab"/><path d="m4061.24 2815.83a104.895 104.895 0 1 0 209.79 0 104.895 104.895 0 1 0 -209.79 0z" fill="#6db1b1"/><path d="m4062.75 2813.8a101.367 101.367 0 1 0 202.73 0 101.367 101.367 0 1 0 -202.73 0z" fill="#78b7b7"/><path d="m4064.25 2811.78a97.84 97.84 0 1 0 195.68 0 97.84 97.84 0 1 0 -195.68 0z" fill="#83bdbd"/><path d="m4065.75 2809.75a94.313 94.313 0 1 0 188.63 0 94.313 94.313 0 1 0 -188.63 0z" fill="#8ec2c2"/><path d="m4067.25 2807.73a90.785 90.785 0 1 0 181.57 0 90.785 90.785 0 1 0 -181.57 0z" fill="#98c8c8"/><path d="m4068.76 2805.7a87.258 87.258 0 1 0 174.51 0 87.258 87.258 0 1 0 -174.51 0z" fill="#a1cdcd"/><path d="m4070.26 2803.68a83.731 83.731 0 1 0 167.46 0 83.731 83.731 0 1 0 -167.46 0z" fill="#aad2d2"/><path d="m4071.76 2801.65a80.203 80.203 0 1 0 160.41 0 80.203 80.203 0 1 0 -160.41 0z" fill="#b3d6d6"/><path d="m4073.26 2799.63a76.676 76.676 0 1 0 153.36 0 76.676 76.676 0 1 0 -153.36 0z" fill="#bbdbdb"/><path d="m4074.77 2797.6a73.148 73.148 0 1 0 146.29 0 73.148 73.148 0 1 0 -146.29 0z" fill="#c3dfdf"/><path d="m4076.27 2795.58a69.621 69.621 0 1 0 139.24 0 69.621 69.621 0 1 0 -139.24 0z" fill="#cae3e3"/><path d="m4077.77 2793.55a66.094 66.094 0 1 0 132.19 0 66.094 66.094 0 1 0 -132.19 0z" fill="#d1e6e6"/><path d="m4079.27 2791.53a62.566 62.566 0 1 0 125.14 0 62.566 62.566 0 1 0 -125.14 0z" fill="#d7eaea"/><path d="m4080.78 2789.5a59.039 59.039 0 1 0 118.08 0 59.039 59.039 0 1 0 -118.08 0z" fill="#ddeded"/><path d="m4082.28 2787.48a55.512 55.512 0 1 0 111.02 0 55.512 55.512 0 1 0 -111.02 0z" fill="#e2efef"/><path d="m4083.78 2785.45a51.984 51.984 0 1 0 103.97 0 51.984 51.984 0 1 0 -103.97 0z" fill="#e7f2f2"/><path d="m4085.28 2783.43a48.457 48.457 0 1 0 96.92 0 48.457 48.457 0 1 0 -96.92 0z" fill="#ecf4f4"/><path d="m4086.79 2781.41a44.93 44.93 0 1 0 89.86 0 44.93 44.93 0 1 0 -89.86 0z" fill="#f0f7f7"/><path d="m4088.29 2779.38a41.402 41.402 0 1 0 82.8 0 41.402 41.402 0 1 0 -82.8 0z" fill="#f3f8f8"/><path d="m4089.79 2777.36a37.875 37.875 0 1 0 75.75 0 37.875 37.875 0 1 0 -75.75 0z" fill="#f6fafa"/><path d="m4091.29 2775.33a34.348 34.348 0 1 0 68.7 0 34.348 34.348 0 1 0 -68.7 0z" fill="#f9fbfb"/><path d="m4092.8 2773.31a30.82 30.82 0 1 0 61.64 0 30.82 30.82 0 1 0 -61.64 0z" fill="#fbfdfd"/><path d="m4094.3 2771.28a27.293 27.293 0 1 0 54.59 0 27.293 27.293 0 1 0 -54.59 0z" fill="#fcfdfd"/><path d="m4095.8 2769.26a23.766 23.766 0 1 0 47.53 0 23.766 23.766 0 1 0 -47.53 0z" fill="#fefefe"/><path d="m4097.31 2767.23a20.238 20.238 0 1 0 40.47 0 20.238 20.238 0 1 0 -40.47 0z" fill="#fefefe"/><path d="m4050.73 2830a129.586 129.586 0 1 0 259.17 0 129.586 129.586 0 1 0 -259.17 0z" fill="none" stroke="#108080" stroke-width="12"/></g></svg>
